!!!!SEGMENT: pl-cz--ii-87--010_kuci-mateusz--regina-caeli.krn
!!!cenid: 18xx:1213
!!!COM: Kuci, Mateusz
!!!COM-rismID:
!!!CDT:
!!!CNT:
!!!OTL: Regina caeli
!!!PDT: 1888
!!!AGN: Sacred
!!!SMS-siglum: PL-CZ
!!!SMS-shelfmark: II-87
!!!SMS-shelfwork: 010 W
!!!SMS-variant:
!!!SMS-altvar:
!!!NIFC-rismSourceID: 300033234
!!!NIFC-islandoraID: pl-cz:33881
!!!URL-pdf-islandora: https://repozytorium.nifc.pl/islandora/object/pl-cz%3A33881/datastream/PDF/view
!!!URL-scan:
!!!ONB-nifc:
!!!AIN: 1 bass 1 organ 1 tenor
!!!key: C
**kern	**kern	**kern	**text	**text	**kern	**text	**text
*part3	*part3	*part2	*part2	*part2	*part1	*part1	*part1
*staff4	*staff3	*staff2	*staff2	*staff2	*staff1	*staff1	*staff1
*IGacmp	*IGacmp	*IGcoro	*	*	*IGcoro	*	*
*ICklav	*ICklav	*ICvox	*	*	*ICvox	*	*
*Iorgan	*Iorgan	*Ibass	*	*	*Itenor	*	*
*I"	*I"	*I"	*	*	*I"	*	*
*clefF4	*clefG2	*clefF4	*	*	*clefG2	*	*
*k[]	*k[]	*k[]	*	*	*k[]	*	*
*C:	*C:	*C:	*	*	*C:	*	*
*M4/4	*M4/4	*M4/4	*	*	*M4/4	*	*
*met(c)	*met(c)	*met(c)	*	*	*met(c)	*	*
=1	=1	=1	=1	=1	=1	=1	=1
*	*^	*	*	*	*	*	*
*tremolo	*	*	*	*	*	*	*	*
!	!	!	!	!	!	!LO:TX:t=P:problem=brak metrum	!	!
!	!	!	!LO:TX:t=P:problem=brak metrum	!	!	!LO:TX:a:t=Allegro, Maestoso	!	!
8CC/LL	4e/ 4cc	2ryy	1r	.	.	1r	.	.
8C/	.	.	.	.	.	.	.	.
8CC/	8.e/L 8.cc	.	.	.	.	.	.	.
8C/JJ	.	.	.	.	.	.	.	.
.	16e/Jk 16cc	.	.	.	.	.	.	.
8CC/LL	4e/ 4cc	4ryy	.	.	.	.	.	.
8C/	.	.	.	.	.	.	.	.
8CC/	16dd/LL	4e\	.	.	.	.	.	.
.	16cc/	.	.	.	.	.	.	.
8C/JJ	16b/	.	.	.	.	.	.	.
.	16cc/JJ	.	.	.	.	.	.	.
*	*v	*v	*	*	*	*	*	*
=2	=2	=2	=2	=2	=2	=2	=2
*rep	*	*	*	*	*	*	*
8CC/LL	4.g/ 4.ee	1ryy	.	.	1ryy	.	.
8C/	.	.	.	.	.	.	.
8CC/	.	.	.	.	.	.	.
8C/JJ	8f/ 8dd	.	.	.	.	.	.
8CC/LL	4e/ 4cc	.	.	.	.	.	.
8C/	.	.	.	.	.	.	.
8CC/	8r	.	.	.	.	.	.
8C/JJ	8g/	.	.	.	.	.	.
*Xrep	*	*	*	*	*	*	*
=3	=3	=3	=3	=3	=3	=3	=3
*rep	*	*	*	*	*	*	*
*	*^	*	*	*	*	*	*
8CC/LL	4cc\ 4ee	2ryy	1ryy	.	.	1ryy	.	.
8C/	.	.	.	.	.	.	.	.
8CC/	8.cc\L 8.ee	.	.	.	.	.	.	.
8C/JJ	.	.	.	.	.	.	.	.
.	16cc\Jk 16ee	.	.	.	.	.	.	.
8CC/LL	4cc\ 4ee	4ryy	.	.	.	.	.	.
8C/	.	.	.	.	.	.	.	.
8CC/	16ff/LL	4cc\	.	.	.	.	.	.
.	16ee/	.	.	.	.	.	.	.
8C/JJ	16dd/	.	.	.	.	.	.	.
.	16ee/JJ	.	.	.	.	.	.	.
*Xrep	*	*	*	*	*	*	*	*
*	*v	*v	*	*	*	*	*	*
=4	=4	=4	=4	=4	=4	=4	=4
8CC/LL	4.ee\ 4.gg	1ryy	.	.	1ryy	.	.
8C/	.	.	.	.	.	.	.
8CC/	.	.	.	.	.	.	.
8C/JJ	8dd\ 8ff	.	.	.	.	.	.
*Xtremolo	*	*	*	*	*	*	*
4CC/	16ee/LL	.	.	.	.	.	.
.	16cc/	.	.	.	.	.	.
.	16dd/	.	.	.	.	.	.
.	16ee/JJ	.	.	.	.	.	.
4r	16ff\LL	.	.	.	.	.	.
.	16gg\	.	.	.	.	.	.
.	16aa\	.	.	.	.	.	.
.	16bb\JJ	.	.	.	.	.	.
=5	=5	=5	=5	=5	=5	=5	=5
*^	*^	*	*	*	*	*	*
!	!	!LO:TX:a:t=2. razy	!	!	!	!	!	!	!
16CC/LL	2ryy	4ee\ 4gg 4ccc	2ryy	1ryy	.	.	1ryy	.	.
16C/	.	.	.	.	.	.	.	.	.
16DD/	.	.	.	.	.	.	.	.	.
16D/JJ	.	.	.	.	.	.	.	.	.
16EE/LL	.	8.ee\L 8.gg 8.ccc	.	.	.	.	.	.	.
16E/	.	.	.	.	.	.	.	.	.
16FF/	.	.	.	.	.	.	.	.	.
16F/JJ	.	16ee\Jk 16gg 16ccc	.	.	.	.	.	.	.
2G/	2GG\	8bb/L	2ff\ 2gg	.	.	.	.	.	.
.	.	8gg/	.	.	.	.	.	.	.
.	.	8aa/	.	.	.	.	.	.	.
.	.	8bb/J	.	.	.	.	.	.	.
=6	=6	=6	=6	=6	=6	=6	=6	=6	=6
!	!	!LO:TX:t=P:problem=takt 6 zapisany znakiem repetycji	!	!	!	!	!	!	!
16CC/LLyy	2ryy	4ee\yy 4ggyy 4cccyy	2ryy	1ryy	.	.	1ryy	.	.
16C/yy	.	.	.	.	.	.	.	.	.
16DD/yy	.	.	.	.	.	.	.	.	.
16D/JJyy	.	.	.	.	.	.	.	.	.
16EE/LLyy	.	8.ee\Lyy 8.ggyy 8.cccyy	.	.	.	.	.	.	.
16E/yy	.	.	.	.	.	.	.	.	.
16FF/yy	.	.	.	.	.	.	.	.	.
16F/JJyy	.	16ee\Jkyy 16ggyy 16cccyy	.	.	.	.	.	.	.
2G\yy	2GG/yy	8bb\Lyy	2ff\yy 2ggyy	.	.	.	.	.	.
.	.	8gg\yy	.	.	.	.	.	.	.
.	.	8aa\yy	.	.	.	.	.	.	.
.	.	8bb\Jyy	.	.	.	.	.	.	.
*v	*v	*	*	*	*	*	*	*	*
*	*v	*v	*	*	*	*	*	*
=7	=7	=7	=7	=7	=7	=7	=7
!!linebreak:original
!LO:TX:t=P:problem=mixed beam	!	!	!	!	!	!	!
16C/LL	8ccc\L	1r	.	.	1r	.	.
16c\	.	.	.	.	.	.	.
16BB/	8bb\	.	.	.	.	.	.
16B\	.	.	.	.	.	.	.
16AA/	8aa\	.	.	.	.	.	.
16A\	.	.	.	.	.	.	.
16GG/	8gg\J	.	.	.	.	.	.
16G\JJ	.	.	.	.	.	.	.
*cue	*	*	*	*	*	*	*
!LO:N:vis:xstem	!	!	!	!	!	!	!
16FF\	8ff\L	.	.	.	.	.	.
!LO:N:vis:xstem	!	!	!	!	!	!	!
16F\	.	.	.	.	.	.	.
!LO:N:vis:xstem	!	!	!	!	!	!	!
16EE\	8ee\	.	.	.	.	.	.
!LO:N:vis:xstem	!	!	!	!	!	!	!
16E\	.	.	.	.	.	.	.
*Xcue	*	*	*	*	*	*	*
!LO:TX:b:t=itd\ndo ce	!	!	!	!	!	!	!
16DD\LLyy	8dd\	.	.	.	.	.	.
16D\yy	.	.	.	.	.	.	.
16CC\yy	8cc\J	.	.	.	.	.	.
16C\JJyy	.	.	.	.	.	.	.
=8||	=8||	=8||	=8||	=8||	=8||	=8||	=8||
*^	*	*^	*	*	*^	*	*
4GG/	4GG\	4b\ 4dd 4gg	2rGG	2rF	.	.	2re	2rdd	.	.
8.GG/L 8.G	4ryy	8.b\L 8.dd 8.gg	.	.	.	.	.	.	.	.
16GG/Jk 16G	.	16b\Jk 16dd 16gg	.	.	.	.	.	.	.	.
4G/	4GG\	4b\ 4dd 4gg	4r	4r	.	.	4rdd	4rf	.	.
4r	4ryy	4r	4r	4r	.	.	8rdd	4rf	.	.
!	!	!	!	!	!	!	!LO:TX:a:t=Soprano Solo	!	!	!
.	.	.	.	.	.	.	8g/	.	Re-	.
*	*	*	*v	*v	*	*	*	*	*	*
*v	*v	*	*	*	*	*v	*v	*	*
=9	=9	=9	=9	=9	=9	=9	=9
*tremolo	*	*	*	*	*	*	*
8CC/L	4e/ 4cc	1ryy	.	.	4cc/	-gi-	.
8C/	.	.	.	.	.	.	.
8CC/	8.e/L 8.cc	.	.	.	[4cc/	-na	.
8C/J	.	.	.	.	.	.	.
.	16e/Jk 16cc	.	.	.	.	.	.
8CC/L	4e/ 4cc	.	.	.	4cc/]	Coe-	.
8C/	.	.	.	.	.	.	.
8CC/	4e/ 4cc	.	.	.	8cc/	-li	.
8C/J	.	.	.	.	8cc/	le	.
=10	=10	=10	=10	=10	=10	=10	=10
*rep	*	*	*	*	*	*	*
*	*	*^	*	*	*^	*	*
*	*	*	*	*	*	*	*	*	*above
!	!	!	!	!	!	!LO:TX:b:t=Alto	!	!	!
8CC/L	4.g/ 4.ee	1rC	1r	.	.	(4.ee\	2ryy	.	ta-
8C/	.	.	.	.	.	.	.	.	.
8CC/	.	.	.	.	.	.	.	.	.
8C/J	8f/ 8dd	.	.	.	.	8dd\)	.	.	.
8CC/L	4e/ 4cc	.	.	.	.	4cc\	4ryy	.	-re
8C/	.	.	.	.	.	.	.	.	.
8CC/	8r	.	.	.	.	8r	8ryy	.	.
8C/J	8g/	.	.	.	.	8g/	8g\	Re-	Re-
*	*	*v	*v	*	*	*	*	*	*
*	*	*	*	*	*v	*v	*	*
*Xrep	*	*	*	*	*	*	*
=11	=11	=11	=11	=11	=11	=11	=11
*rep	*	*	*	*	*	*	*
*	*^	*^	*	*	*^	*	*
8CC/L	4ee/	4cc\	1rC	1r	.	.	4ee/	4cc\	gi-	-gi-
8C/	.	.	.	.	.	.	.	.	.	.
8CC/	8.ee/L	8.cc\L	.	.	.	.	4ee/	4cc\	-na	-na
8C/J	.	.	.	.	.	.	.	.	.	.
.	16ee/Jk	16cc\Jk	.	.	.	.	.	.	.	.
8CC/L	4ee/	4cc\	.	.	.	.	4ee/	4cc\	Coe-	Coe-
8C/	.	.	.	.	.	.	.	.	.	.
8CC/	16ff/LL	4cc\	.	.	.	.	8ee/	8cc\	-li	-li
.	16ee/	.	.	.	.	.	.	.	.	.
8C/J	16dd/	.	.	.	.	.	8ee/	8cc\	le	le
.	16ee/JJ	.	.	.	.	.	.	.	.	.
*	*v	*v	*	*	*	*	*v	*v	*	*
*	*	*v	*v	*	*	*	*	*
*Xrep	*	*	*	*	*	*	*
=12	=12	=12	=12	=12	=12	=12	=12
!!linebreak:original
*	*tremolo	*	*	*	*	*	*
*	*^	*^	*	*	*^	*	*
8CC/L	4.gg/	4.ee\	4rG	4rAA	.	.	(4.gg/	(4.ee\	.	.
8C/	.	.	.	.	.	.	.	.	.	.
8CC/	.	.	4rG	4rAA	.	.	.	.	.	.
8C/J	8ff/	8dd\	.	.	.	.	8ff/)	8dd\)	.	.
8CC/L	16ee/LL	4cc\	8rG	8rAA	.	.	8ee/	8cc\	.	.
.	16cc/	.	.	.	.	.	.	.	.	.
!	!	!	!	!	!	!	!LO:TX:a:t=Tutti.	!	!	!
8C/	16dd/	.	8e/	8c\	.	.	8g/	8g\	Al-	.
.	16ee/JJ	.	.	.	.	.	.	.	.	.
8CC/	16ff\LL	4ryy	8g/	8G\	.	.	8g/	8g\	-le-	.
.	16gg\	.	.	.	.	.	.	.	.	.
8C/J	16aa\	.	8g/	8E\	.	.	8g/	8g\	-lu-	.
*	*Xtremolo	*	*	*	*	*	*	*	*	*
.	16bb\JJ	.	.	.	.	.	.	.	.	.
*	*v	*v	*	*	*	*	*	*	*	*
=13	=13	=13	=13	=13	=13	=13	=13	=13	=13
*^	*	*	*^	*	*	*	*	*	*
4C/	4CC\	4ee\ 4gg 4ccc	4e/	4C\	2ryy	.	.	4.cc/	4g\	-ja	.
8.G\L 8.c 8.e	4ryy	8.ee\L 8.gg 8.ccc	4c/	4C\	.	.	.	.	4g\	.	.
.	.	.	.	.	.	.	.	8ee/	.	Al-	.
16G\Jk 16c 16e	.	16ee\Jk 16gg 16ccc	.	.	.	.	.	.	.	.	.
4GG/	4GG\	4dd\ 4gg 4bb	4B/	4G\	4ryy	.	.	4gg/	4g\	-le-	.
8.G\L 8.d 8.f	4ryy	8.dd\L 8.gg 8.bb	4f/	4B\	4GG\	.	.	4g/	4g\	-lu-	.
16G\Jk 16d 16f	.	16dd\Jk 16gg 16bb	.	.	.	.	.	.	.	.	.
=14	=14	=14	=14	=14	=14	=14	=14	=14	=14	=14	=14
!	!	!	!	!	!	!	!	!LO:TX:a:t=Solo	!	!	!
4c\ 4e	2ryy	4ee\ 4gg 4ccc	2e/	2c\	2C\	.	.	2cc/	2g\	-ja.	.
8.CC/L 8.C	.	8.e/L 8.g 8.cc	.	.	.	.	.	.	.	.	.
16CC/Jk 16C	.	16e/Jk 16g 16cc	.	.	.	.	.	.	.	.	.
4C/	4CC\	4e/ 4g 4cc	2r	2rAA	2ryy	.	.	4r	2re	.	.
4r	4ryy	4r	.	.	.	.	.	8cc/	.	.	Qu-
.	.	.	.	.	.	.	.	8cc/	.	.	-ia
*v	*v	*	*	*v	*v	*	*	*	*	*	*
=15	=15	=15	=15	=15	=15	=15	=15	=15	=15
!!pagebreak:original
*	*^	*	*	*	*	*	*	*	*
!LO:TX:t=P:problem=mixed beam	!	!	!	!	!	!	!	!	!	!
8C/LL	8cc/L	4a\	1r	1rAA	.	.	8cc/L	1r	.	quem
8c\	8ff/J	.	.	.	.	.	8ff/J	.	.	.
8C/	2ff/	2a\	.	.	.	.	2ff/	.	.	me-
8c\JJ	.	.	.	.	.	.	.	.	.	.
!LO:TX:t=P:problem=mixed beam	!	!	!	!	!	!	!	!	!	!
8C/LL	.	.	.	.	.	.	.	.	.	.
8c\	.	.	.	.	.	.	.	.	.	.
8C/	4ee/	4g\	.	.	.	.	[4ee/	.	.	-ru-
8c\JJ	.	.	.	.	.	.	.	.	.	.
*	*v	*v	*	*	*	*	*v	*v	*	*
*	*	*v	*v	*	*	*	*	*
=16	=16	=16	=16	=16	=16	=16	=16
*rep	*	*	*	*	*	*	*
*	*^	*^	*	*	*^	*	*
8C/LL	4.g/ 4.ee	2ryy	2r	1r	.	.	4.ee/]	1r	.	.
8c\	.	.	.	.	.	.	.	.	.	.
8C/	.	.	.	.	.	.	.	.	.	.
8c\JJ	8f/ 8dd	.	.	.	.	.	8dd/	.	.	-i-
8C/LL	4e/ 4cc	4ryy	4r	.	.	.	4cc/	.	.	-sti
8c\	.	.	.	.	.	.	.	.	.	.
*	*	*	*	*	*	*above	*	*	*	*
8C/	8cc/L	8cc\L	8c/L	.	.	qu-	4cc/	.	.	por-
*	*v	*v	*	*	*	*	*	*	*	*
*	*^	*	*	*	*	*	*	*	*
8c\JJ	8cc/J	8cc\J	8c/J	.	.	-ia	.	.	.	.
*	*v	*v	*	*	*	*	*v	*v	*	*
*	*	*v	*v	*	*	*	*	*
*Xrep	*	*	*	*	*	*	*
=17	=17	=17	=17	=17	=17	=17	=17
*rep	*	*	*	*	*	*	*
*	*	*^	*	*	*^	*	*
8C/LL	8cc\L	8c/L	1r	.	qu-	8cc/L	1r	.	-ta-
8c\	8ff\J 8aa	8f/J	.	.	-em	8aa/J	.	.	.
8C/	2ff\ 2aa	2f/	.	.	me-	2aa/	.	.	-re
8c\JJ	.	.	.	.	.	.	.	.	.
8C/LL	.	.	.	.	.	.	.	.	.
8c\	.	.	.	.	.	.	.	.	.
8C/	8ee\L 8gg	8e/L	.	.	-ru-	8gg/L	.	.	por-
8c\JJ	8ff\J 8aa	8f/J	.	.	.	8aa/J	.	.	.
*Xrep	*	*	*	*	*	*	*	*	*
=18	=18	=18	=18	=18	=18	=18	=18	=18	=18
*^	*^	*	*	*	*	*	*	*	*
*v	*v	*	*	*v	*v	*	*	*v	*v	*	*
*	*v	*v	*	*	*	*	*	*
*^	*^	*^	*	*	*^	*	*
!LO:TX:t=P:problem=mixed beam	!	!	!	!	!	!	!	!	!	!	!
8C/L	2ryy	4.gg/	4.ee\	4.e\	2r	.	-i-	4.gg/	2r	.	-ta-
8c\	.	.	.	.	.	.	.	.	.	.	.
8C/	.	.	.	.	.	.	.	.	.	.	.
8c\J	.	8ff/	8dd\	8d\	.	.	.	8ff/	.	.	.
*v	*v	*	*	*v	*v	*	*	*v	*v	*	*
*	*v	*v	*	*	*	*	*	*
*Xtremolo	*	*	*	*	*	*	*
*^	*^	*^	*	*	*^	*	*
4C/	4C\	4ee/	4cc\	8c\	4r	.	-sti	4ee/	4r	.	-re
.	.	.	.	8g/	.	.	por-	.	.	.	.
4ryy	16C\LL	8.ee\L 8.ccc	4ryy	8g/	8c\	Al-	-ta-	8ee/	8cc\	.	Al-
.	16D\	.	.	.	.	.	.	.	.	.	.
.	16E\	.	.	8g/	8c\	-le-	-re	8ee/	8cc\	.	-le-
.	16F#X\JJ	16ee\Jk 16ccc	.	.	.	.	.	.	.	.	.
*	*	*v	*v	*	*	*	*	*	*	*	*
=19	=19	=19	=19	=19	=19	=19	=19	=19	=19	=19
!!linebreak:original
4G\	2ryy	4dd\ 4gg 4bb	2g/	4B\	-lu-	Al-	4ff/	4dd\	.	-lu-
8.G\L	.	8.dd\L 8.gg 8.bb	.	8B\	-ja	.	8ff/	8dd\	.	-ja
.	.	.	.	8B\	Al-	.	8ff/	8dd\	.	al-
16G\Jk	.	16dd\Jk 16gg 16bb	.	.	.	.	.	.	.	.
4c/	4C\	4ee\ 4gg 4ccc	4g/	4c\	-le-	-le-	4ee/	4cc\	.	-le-
16C\LL	4ryy	4ee\ 4gg 4ccc	4g/	4C\	-lu-	-lu	4ee/	4cc\	.	-lu-
16D\	.	.	.	.	.	.	.	.	.	.
16E\	.	.	.	.	.	.	.	.	.	.
16F#X\JJ	.	.	.	.	.	.	.	.	.	.
=20	=20	=20	=20	=20	=20	=20	=20	=20	=20	=20
4G\	2ryy	4dd\ 4gg 4bb	4g/	4G\	-ja	.	4ee/	4cc\	.	-ja
8.GG/L 8.G	.	8.b\L 8.dd 8.gg	4rG	4rAA	.	.	4r	4rc	.	.
16GG/Jk 16G	.	16b\Jk 16dd 16gg	.	.	.	.	.	.	.	.
4G/	4GG\	4b\ 4dd 4gg	4rG	4rAA	.	.	4r	4rc	.	.
16C\LL	4ryy	8.ee\L 8.gg 8.ccc	8g/	8c\	.	.	8ee/	8cc\	Al-	.
16D\	.	.	.	.	.	.	.	.	.	.
16E\	.	.	8g/	8c\	.	.	8ee/	8cc\	-le-	.
16F\JJ	.	16ee\Jk 16gg 16ccc	.	.	.	.	.	.	.	.
*v	*v	*	*	*	*	*	*	*	*	*
=21	=21	=21	=21	=21	=21	=21	=21	=21	=21
4G\	4dd\ 4gg 4bb	4g/	4B\	.	.	4ff/	4dd\	-lu-	.
16G\LL	8.dd\L 8.gg 8.bb	8g/	8B\	.	.	8ff/	8dd\	-ja	.
16A\	.	.	.	.	.	.	.	.	.
16B\	.	8g/	8B\	.	.	8ff/	8dd\	Al-	.
16G\JJ	16dd\Jk 16gg 16bb	.	.	.	.	.	.	.	.
8c\L	4ee\ 4gg 4ccc	4g/	8c\L	.	.	4ee/	4cc\	-le-	.
8G\	.	.	8G\J	.	.	.	.	.	.
8E\	4ee\ 4gg 4ccc	4g/	8E\L	.	.	4cc/	4cc\	-lu-	.
8C\J	.	.	8C\J	.	.	.	.	.	.
=22	=22	=22	=22	=22	=22	=22	=22	=22	=22
!!linebreak:original
4G\	4dd\ 4gg 4bb	2g/	2G\	.	.	2gg/	2b\	-ja.	.
16G\LL	16g/LL	.	.	.	.	.	.	.	.
16A\	16a/	.	.	.	.	.	.	.	.
16B\	16b/	.	.	.	.	.	.	.	.
16c\JJ	16cc/JJ	.	.	.	.	.	.	.	.
16d\LL	16dd\LL	2r	2rAA	.	.	2r	2rc	.	.
16c\	16cc\	.	.	.	.	.	.	.	.
16B\	16b\	.	.	.	.	.	.	.	.
16A\JJ	16a\JJ	.	.	.	.	.	.	.	.
16G\LL	16g/LL	.	.	.	.	.	.	.	.
16F\	16f/	.	.	.	.	.	.	.	.
16E\	16e/	.	.	.	.	.	.	.	.
16D\JJ	16d/JJ	.	.	.	.	.	.	.	.
=23	=23	=23	=23	=23	=23	=23	=23	=23	=23
4C\	8c/L	1r	1rAA	.	.	8r	8r	.	.
.	8e/ 8g	.	.	.	.	(8g/	(8e\	Re-	.
4r	8f/ 8a	.	.	.	.	8a/)	8f\)	.	.
.	8g/J 8b	.	.	.	.	8b/	8g\	-su-	.
2r	8a\L 8cc	.	.	.	.	8cc/	8a\	-re-	.
.	8b\ 8dd	.	.	.	.	8dd/	8b\	-xit	.
.	8cc\ 8ee	.	.	.	.	8ee/	8cc\	Si-	.
.	8dd\J 8ff	.	.	.	.	8ff/	8dd\	-cut	.
=24	=24	=24	=24	=24	=24	=24	=24	=24	=24
8r	2.ee\ 2.gg	8r	8r	.	.	(2.gg/	(2.ee\	Di-	.
8C\L	.	(8E/	(8C\	Re-	.	.	.	.	.
8D\	.	8F/)	8D\)	.	.	.	.	.	.
8E\J	.	8G/	8E\	-su-	.	.	.	.	.
8F\L	.	8A/	8F\	-re-	.	.	.	.	.
8G\	.	8B/	8G\	-xit	.	.	.	.	.
8A\	4dd\ 4ff	8c/	8A\	re-	.	4ff/	4dd\	.	.
8B\J	.	8d/	8B\	-sur-	.	.	.	.	.
*	*	*v	*v	*	*	*	*	*	*
=25	=25	=25	=25	=25	=25	=25	=25	=25
!!pagebreak:original
8c\L	8cc\ 8ee	8c\ 8e	-re-	.	8ee/)	8cc\)	-xit	xit
8G\	4ee\ 4gg	8G\ 8B	-xit	.	4gg/	4ee\	Re-	Re-
8A\	.	8A\ 8c	si-	.	.	.	.	.
8B\J	8dd\ 8ff	8B\ 8d	-cut	.	8ff/	8dd\	-sur-	-sur-
8c\L	8cc\ 8ee	8c\ 8e	di-	.	8ee/	8cc\	-re-	-re-
8G\	4ee\ 4gg	8G\ 8B	-xit	.	4gg/	4ee\	-xit	-xit
8A\	.	8A\ 8c	si-	.	.	.	.	.
8B\J	8dd\ 8ff	8B\ 8d	-cut	.	8ff/	8dd\	si	si-
=26	=26	=26	=26	=26	=26	=26	=26	=26
*	*	*^	*	*	*	*	*	*
8c\L	8cc\ 8ee	8e/	8c\	Di-	.	8ee/	8cc\	.	-cut
8E\	4cc\ 4ee	8G#X/	8E\	-xit	.	4ee/	4cc\	.	si-
8F#X\	.	8A/	8F#X\	si-	.	.	.	.	.
8G#X\J	8b\ 8dd	8B/	8G#\	-cut	.	8dd/	8b\	.	-cut
8A\L	8a\ 8cc	8c/	8A\	Di-	.	8cc/	8a\	.	di-
8C\	4a\ 4cc	8E/	8C\	-xit	.	4cc/	4a\	.	-xit
8D\	.	8F#/	8D\	si-	.	.	.	.	.
8E\J	8g\ 8b	8Gn/	8E\	-cut	.	8b/	8g\	.	si-
=27	=27	=27	=27	=27	=27	=27	=27	=27	=27
4F\	4f/ 4a	4A/	4F\	Di-	.	4a/	4f\	.	-cut
8D\L	4a/ 4ff	4F/	4D\	-xit	.	4ff/	4a\	.	Di-
8F\J	.	.	.	.	.	.	.	.	.
8E\L	4g\ 4ee	4G/	4E\	Al-	.	4ee/	4g\	.	-xit
8G\J	.	.	.	.	.	.	.	.	.
8F\L	4f/ 4dd	4A/	4Fn\	-le-	.	8dd/	8f\	.	Al-
8A\J	.	.	.	.	.	8dd/	8f\	.	-le-
=28	=28	=28	=28	=28	=28	=28	=28	=28	=28
!!linebreak:original
4G\	4e/ 4g 4cc	4G/	4G\	-lu-	.	8cc/L	4e\	.	-lu-
.	.	.	.	.	.	8g/J	.	.	.
8.G\L	8.e/L 8.g 8.cc	8c/	8E\	-ja	.	8cc/	8e\	.	-ja
.	.	8c/	8C\	Al-	.	8ee/	8e\	.	Al-
16G\Jk	16e/Jk 16g 16cc	.	.	.	.	.	.	.	.
4GG/	4d/ 4g 4b	4B/	4G\	-le-	.	4gg/	4d\	.	-le-
!	!	!LO:N:vis=8	!	!	!	!	!	!	!
8.GG/L	8.dd\L 8.gg 8.bb	4B/	4G\	-lu-	.	4g/	4d\	.	-lu-
16GG/Jk	16dd\Jk 16gg 16bb	.	.	.	.	.	.	.	.
=29	=29	=29	=29	=29	=29	=29	=29	=29	=29
4C/	8cc\ 8ee 8gg 8ccc	4c/	4C\	-ja	.	8cc/	8e\	.	-ja
.	8e/L 8g	.	.	.	.	(8g/	(8e\	.	Re-
4r	8f/ 8a	4rG	4rAA	.	.	8a/)	8f\)	.	.
.	8g/J 8b	.	.	.	.	8b/	8g\	.	-sur-
2r	8a/L 8cc	2rG	2rAA	.	.	8cc/	8a\	.	-re-
.	8b/ 8dd	.	.	.	.	8dd/	8b\	.	-xit
.	8cc/ 8ee	.	.	.	.	8ee/	8cc\	.	si-
.	8dd/J 8ff	.	.	.	.	8ff/	8dd\	.	-cut
=30	=30	=30	=30	=30	=30	=30	=30	=30	=30
!!linebreak:original
*	*^	*	*	*	*	*	*	*	*
8r	2.gg/	2.ee\	8rG	8rAA	.	.	(2.gg/	(2.ee\	.	Di-
8C/L 8E	.	.	(8E/	(8C\	Re-	.	.	.	.	.
8D/ 8F	.	.	8F/)	8D\)	.	.	.	.	.	.
8E/J 8G	.	.	8G/	8E\	-su-	.	.	.	.	.
8F/L 8A	.	.	8A/	8F\	-re-	.	.	.	.	.
8G/ 8B	.	.	8B/	8G\	-xit	.	.	.	.	.
!	!LO:TX:t=P:problem=wykreślona 4dd ff	!	!	!	!	!	!	!	!	!
8A/ 8c	4ff/	4dd\	8c/	8A\	re-	.	4ff/	4dd\	.	.
8B/J 8d	.	.	8d/	8B\	-sur-	.	.	.	.	.
=31	=31	=31	=31	=31	=31	=31	=31	=31	=31	=31
8c\L	8ee/	8cc\	8e/	8c\	-re-	.	8ee/)	8cc\)	.	-xit
8G\	4ee\ 4gg	8ryy	8B/	8G\	-xit	.	4gg/	4ee\	.	Re-
8A\	.	4ryy	8c/	8A\	si-	.	.	.	.	.
8B\J	8dd\ 8ff	.	8d/	8B\	-cut	.	8ff/	8dd\	.	-sur-
8c\L	8cc\ 8ee	2ryy	8e/	8c\	di-	.	8ee/	8cc\	.	-re-
8G\	4ee\ 4gg	.	8B/	8G\	-xit	.	4gg/	4ee\	.	-xit
8A\	.	.	8c/	8A\	si-	.	.	.	.	.
8B\J	8dd\ 8ff	.	8d/	8B\	-cut	.	8ff/	8dd\	.	si-
=32	=32	=32	=32	=32	=32	=32	=32	=32	=32	=32
!!pagebreak:original
8c\L	8ee/	8cc\	8e/	8c\	si-	.	8ee/	8cc\	.	-cut
8E\	4ee/	4cc\	8G#X/	8E\	-cut	.	4ee/	4cc\	.	si-
8F#X\	.	.	8A/	8F#X\	si-	.	.	.	.	.
8G#X\J	8dd/	8b\	8B/	8G#\	-cut	.	8dd/	8b\	.	-cut
8A\L	8a\ 8cc	2ryy	8c/	8A\	di-	.	8cc/	8a\	.	Di-
8C\	4a\ 4cc	.	8E/	8C\	-xit	.	4cc/	4a\	.	-xit
8D\	.	.	8F#/	8D\	si-	.	.	.	.	.
8E\J	8g\ 8b	.	8G#/	8E\	-cut	.	8b/	8g\	.	si-
*	*v	*v	*	*	*	*	*	*	*	*
=33	=33	=33	=33	=33	=33	=33	=33	=33	=33
4F\	4f/ 4a	4A/	4F\	di-	.	4a/	4f\	.	-cut
!	!	!	!	!	!	!LO:TX:a:t=f\na	!	!	!
!	!	!	!	!	!	!LO:TX:b:t=f\na	!	!	!
8D\L	4a\ 4ff	4F/	4D\	-xit	.	4ff/	4a\	.	di-
8F\J	.	.	.	.	.	.	.	.	.
8E\L	4g/ 4ee	4G/	4E\	Al-	.	4ee/	4g\	.	-xit
8G\	.	.	.	.	.	.	.	.	.
8F\	4f\ 4dd	4A/	4F\	-le-	.	8dd/	8f\	.	Al-
8A\J	.	.	.	.	.	8dd/	8f\	.	-le-
=34	=34	=34	=34	=34	=34	=34	=34	=34	=34
*	*^	*	*	*	*	*	*	*	*
4G\	4cc/	4e\	4G/	4G\	-lu-	.	8cc/L	4e\	.	-lu-
.	.	.	.	.	.	.	8g/J	.	.	.
8.G\L 8.c 8.e	8.ee\L 8.gg 8.ccc	8.ryy	8c/	8E\	-ja	.	8cc/,	8e\	.	-ja
.	.	.	8c/	8C\	Al-	.	8ee/	8e\	.	Al-
16G\Jk 16c 16e	16ee\Jk 16gg 16ccc	16ryy	.	.	.	.	.	.	.	.
4G\ 4d 4f	4dd\ 4gg 4bb	4ryy	4B/	4G\	-le-	.	4gg/	4d\	.	-le-
8.G\L 8.d 8.f	8.dd\L 8.gg 8.bb	8.ryy	4B/	4G\	lu	.	4g/	4d\	.	-lu-
16G\Jk 16d 16f	16dd\Jk 16gg 16bb	16ryy	.	.	.	.	.	.	.	.
*	*v	*v	*	*	*	*	*	*	*	*
=35	=35	=35	=35	=35	=35	=35	=35	=35	=35
!!linebreak:original
8C/L	2ee\ 2gg 2ccc	4c/	4C\	.	ja	4cc/	4e\	.	-ja
16D/L	.	.	.	.	.	.	.	.	.
16E/JJ	.	.	.	.	.	.	.	.	.
16F\LL	.	8rG	8rAA	.	.	8r	8rc	.	.
16G\	.	.	.	.	.	.	.	.	.
16A\	.	8c/	8G\	.	Al-	8ee/	8cc\	.	Al-
16B\JJ	.	.	.	.	.	.	.	.	.
8c\L	16ccc\LL	8c/	8c\L	.	-le-	4ee/	4cc\	.	-le-
.	16ee\	.	.	.	.	.	.	.	.
8B\	16ccc\	8B/	8B\	.	.	.	.	.	.
.	16ee\JJ	.	.	.	.	.	.	.	.
8c\	16ccc\LL	8c/	8c\	.	-lu-	4ee/	4cc\	.	-lu-
.	16ee\	.	.	.	.	.	.	.	.
8B\J	16ccc\	8B/	8B\J	.	.	.	.	.	.
.	16ee\JJ	.	.	.	.	.	.	.	.
=36	=36	=36	=36	=36	=36	=36	=36	=36	=36
8AA/L	2ee\ 2gg 2ccc	4c/	4A\	.	-ja	4ee/	4cc\	.	-ja
16BB/L	.	.	.	.	.	.	.	.	.
16C/JJ	.	.	.	.	.	.	.	.	.
16D\LL	.	8rG	8rAA	.	.	8r	8rc	.	.
16E\	.	.	.	.	.	.	.	.	.
16F#X\	.	8c/	8E\	.	Al-	8ee/	8cc\	.	Al-
16G#X\JJ	.	.	.	.	.	.	.	.	.
8A\L	16ccc\LL	4c/	8A\L	.	-le-	4ee/	4cc\	.	-le-
.	16ee\	.	.	.	.	.	.	.	.
8G#X\J	16ccc\	.	8G#X\J	.	.	.	.	.	.
.	16ee\JJ	.	.	.	.	.	.	.	.
8A\L	16ccc\LL	4c/	8A\L	.	-lu	4ee/	4cc\	.	-lu-
.	16ee\	.	.	.	.	.	.	.	.
!	!	!LO:TX:t=P:problem=# poprawiony na n	!	!	!	!	!	!	!
8Gn\J	16ccc\	.	8Gn\J	.	.	.	.	.	.
.	16ee\JJ	.	.	.	.	.	.	.	.
=37	=37	=37	=37	=37	=37	=37	=37	=37	=37
!!linebreak:original
8F\L	16ccc\LL	4A/	8F\L	-ja	.	4dd/	4b\	.	-ja
.	16dd\	.	.	.	.	.	.	.	.
8E\J	16ccc\	.	8E\J	.	.	.	.	.	.
.	16dd\JJ	.	.	.	.	.	.	.	.
8F\L	16ccc\LL	4A/	8F\L	Al-	.	4dd/	4b\	.	Al-
.	16dd\	.	.	.	.	.	.	.	.
8D\J	16ccc\	.	8D\J	.	.	.	.	.	.
.	16dd\JJ	.	.	.	.	.	.	.	.
8G\L	16gg\LL 16bb	4.B/	4G\	-le-	.	4.gg/	4.g\	.	-le-
.	16dd\	.	.	.	.	.	.	.	.
8F\J	16gg\ 16bb	.	.	.	.	.	.	.	.
.	16dd\JJ	.	.	.	.	.	.	.	.
!LO:TX:t=P:problem=mixed beam	!	!	!	!	!	!	!	!	!
8G\L	16gg\LL 16bb	.	4G\	.	.	.	.	.	.
.	16dd\	.	.	.	.	.	.	.	.
8GG/J	16gg\ 16bb	8B/	.	-lu-	.	8g/	8g\	.	-lu-
.	16dd\JJ	.	.	.	.	.	.	.	.
=38	=38	=38	=38	=38	=38	=38	=38	=38	=38
8C/L	2ee\ 2gg 2ccc	4c/	4C\	-ja	.	4cc/	4cc\	.	-ja
16D/L	.	.	.	.	.	.	.	.	.
16E/JJ	.	.	.	.	.	.	.	.	.
16F\LL	.	8rG	8rAA	.	.	8r	8rc	.	.
16G\	.	.	.	.	.	.	.	.	.
16A\	.	8c/	8G\	Al-	.	8ee/	8cc\	.	Al-
16B\JJ	.	.	.	.	.	.	.	.	.
8c\L	16ccc\LL	4c/	8c\L	-le-	.	4ee/	4cc\	.	-le-
.	16ee\	.	.	.	.	.	.	.	.
8B\J	16ccc\	.	8B\J	.	.	.	.	.	.
.	16ee\JJ	.	.	.	.	.	.	.	.
8c\L	16ccc\LL	4c/	8c\L	-lu	.	4ee/	4cc\	.	-lu-
.	16ee\	.	.	.	.	.	.	.	.
8B\J	16ccc\	.	8B\J	.	.	.	.	.	.
.	16ee\JJ	.	.	.	.	.	.	.	.
=39	=39	=39	=39	=39	=39	=39	=39	=39	=39
!!pagebreak:original
8AA/L	2ee\ 2gg 2ccc	4c/	4A\	.	.	4ee/	4cc\	.	-ja
16BB/L	.	.	.	.	.	.	.	.	.
16C/JJ	.	.	.	.	.	.	.	.	.
16D\LL	.	8rAA	8rG	.	.	8ree	8rg	.	.
16E\	.	.	.	.	.	.	.	.	.
16F#X\	.	8c/	8E\	Al-	.	8ee/	8cc\	.	Al-
16G#X\JJ	.	.	.	.	.	.	.	.	.
!	!	!LO:TX:t=P:problem=8c popraiona na 4c	!	!	!	!	!	!	!
8A\L	16ccc\LL	4c/	8A\L	-le-	.	4ee/	4cc\	.	-le-
.	16ee\	.	.	.	.	.	.	.	.
8G#X\J	16ccc\	.	8G#X\J	.	.	.	.	.	.
.	16ee\JJ	.	.	.	.	.	.	.	.
8A\L	16ccc\LL	4c/	8A\L	-lu-	.	4ee/	4cc\	.	-lu-
.	16ee\	.	.	.	.	.	.	.	.
8Gn\J	16ccc\	.	8Gn\J	.	.	.	.	.	.
.	16ee\JJ	.	.	.	.	.	.	.	.
=40	=40	=40	=40	=40	=40	=40	=40	=40	=40
8F\L	16bb\LL	4d/	8F\L	-ja	.	4dd/	4b\	.	-ja
.	16dd\	.	.	.	.	.	.	.	.
8E\J	16bb\	.	8E\J	.	.	.	.	.	.
.	16dd\JJ	.	.	.	.	.	.	.	.
8F\L	16bb\LL	4A/	8F\L	Al-	.	4dd/	4b\	.	Al-
.	16dd\	.	.	.	.	.	.	.	.
8D\J	16bb\	.	8D\J	.	.	.	.	.	.
.	16dd\JJ	.	.	.	.	.	.	.	.
!LO:TX:t=P:problem=mixed beam	!	!	!	!	!	!	!	!	!
8G\L	16bb\LL	4.B/	4G\	-le-	.	4.gg/	4.g\	.	-le-
.	16dd\	.	.	.	.	.	.	.	.
8F\	16bb\	.	.	.	.	.	.	.	.
.	16dd\JJ	.	.	.	.	.	.	.	.
8G\	16bb\LL	.	4G\	-lu	.	.	.	.	.
.	16dd\	.	.	.	.	.	.	.	.
8GG/J	16bb\	8B/	.	.	.	8g/	8g\	.	-lu
.	16dd\JJ	.	.	.	.	.	.	.	.
=41	=41	=41	=41	=41	=41	=41	=41	=41	=41
!!linebreak:original
*^	*^	*	*	*	*	*	*	*	*
4C/	16C\LL	4ee\ 4gg 4ccc	2ryy	4c/	4C\	.	.	4cc/	4cc\	.	.
.	(>16c\	.	.	.	.	.	.	.	.	.	.
.	16B\	.	.	.	.	.	.	.	.	.	.
.	16c\JJ)	.	.	.	.	.	.	.	.	.	.
4A/	16A\LL	4cc\ 4ff	.	4f/	4A\	.	.	4ff/	4cc\	.	.
.	(>16c\	.	.	.	.	.	.	.	.	.	.
.	16B\	.	.	.	.	.	.	.	.	.	.
.	16c\JJ)	.	.	.	.	.	.	.	.	.	.
4G/	16G\LL	4ee/ 4gg	2cc\	4e/	4G\	.	.	4gg/	4cc\	.	.
.	(>16c\	.	.	.	.	.	.	.	.	.	.
.	16B\	.	.	.	.	.	.	.	.	.	.
.	16c\JJ)	.	.	.	.	.	.	.	.	.	.
4F/	16F\LL	4dd#X/ 4aa	.	4d#X/	4F#X\	.	.	4aa/	4cc\	.	.
.	(>16c\	.	.	.	.	.	.	.	.	.	.
.	16B\	.	.	.	.	.	.	.	.	.	.
.	16c\JJ)	.	.	.	.	.	.	.	.	.	.
*	*	*v	*v	*	*	*	*	*	*	*	*
=42	=42	=42	=42	=42	=42	=42	=42	=42	=42	=42
4G/	16G\LL	4cc\ 4ee 4gg	4.e/	(>4G\	.	.	4.gg/	4.cc\	.	.
.	(>16e\	.	.	.	.	.	.	.	.	.
.	16c\	.	.	.	.	.	.	.	.	.
.	16e\JJ)	.	.	.	.	.	.	.	.	.
*	*rep	*	*	*	*	*	*	*	*	*
4G/yy	16G\LL	8.cc\L 8.ee 8.gg	.	8E\L)	.	.	.	.	.	.
.	(>16e\	.	.	.	.	.	.	.	.	.
.	16c\	.	8e/	8C\J	.	.	8gg/	8cc\	.	.
.	16e\JJ)	16cc\Jk 16ee 16gg	.	.	.	.	.	.	.	.
*	*Xrep	*	*	*	*	*	*	*	*	*
4G/	16G\LL	4dd\ 4ff 4gg 4bb	4f/	4G\	.	.	4b/	4g\	.	.
.	(>16f\	.	.	.	.	.	.	.	.	.
.	16d\	.	.	.	.	.	.	.	.	.
.	16f\JJ)	.	.	.	.	.	.	.	.	.
*	*rep	*	*	*	*	*	*	*	*	*
4G/yy	16G\LL	4dd\ 4ff 4gg 4bb	4f/	4GG\	.	.	4b/	4g\	.	.
.	(>16f\	.	.	.	.	.	.	.	.	.
.	16d\	.	.	.	.	.	.	.	.	.
.	16f\JJ)	.	.	.	.	.	.	.	.	.
*	*Xrep	*	*	*	*	*	*	*	*	*
*v	*v	*	*	*	*	*	*	*	*	*
=43	=43	=43	=43	=43	=43	=43	=43	=43	=43
!!linebreak:original
*	*^	*	*	*	*	*	*	*	*
16C\LL	4ee\ 4gg 4ccc	4ryy	4e/	4C\ 4G	.	.	4cc/	4cc\	.	.
16c\	.	.	.	.	.	.	.	.	.	.
16B\	.	.	.	.	.	.	.	.	.	.
16c\JJ	.	.	.	.	.	.	.	.	.	.
16A\LL	4ff/	2.cc\	4f/	4A\	.	.	4ff/	4cc\	.	.
16c\	.	.	.	.	.	.	.	.	.	.
16B\	.	.	.	.	.	.	.	.	.	.
16c\JJ	.	.	.	.	.	.	.	.	.	.
16G\LL	4ee/ 4gg	.	4e/	4G\	.	.	4gg/	4cc\	.	.
16c\	.	.	.	.	.	.	.	.	.	.
16B\	.	.	.	.	.	.	.	.	.	.
16c\JJ	.	.	.	.	.	.	.	.	.	.
16F#X\LL	4dd#X/ 4aa	.	4d#X/	4F#X\	.	.	4aa/	4cc\	.	.
16c\	.	.	.	.	.	.	.	.	.	.
16B\	.	.	.	.	.	.	.	.	.	.
16c\JJ	.	.	.	.	.	.	.	.	.	.
*	*v	*v	*	*	*	*	*	*	*	*
=44	=44	=44	=44	=44	=44	=44	=44	=44	=44
16G\LL	4cc\ 4ee 4gg	4.e/	(>4G\	.	.	4.gg/	4.cc\	.	.
16e\	.	.	.	.	.	.	.	.	.
16c\	.	.	.	.	.	.	.	.	.
16e\JJ	.	.	.	.	.	.	.	.	.
*rep	*	*	*	*	*	*	*	*	*
16G\LL	8.cc\L 8.ee 8.gg	.	8E\L)	.	.	.	.	.	.
16e\	.	.	.	.	.	.	.	.	.
16c\	.	8e/	8C\J	.	.	8gg/	8cc\	.	.
16e\JJ	16cc\Jk 16ee 16gg	.	.	.	.	.	.	.	.
*Xrep	*	*	*	*	*	*	*	*	*
16G\LL	4dd\ 4ff 4gg 4bb	4g/	4G\	.	.	4b/	4g\	.	.
16f\	.	.	.	.	.	.	.	.	.
16d\	.	.	.	.	.	.	.	.	.
16f\JJ	.	.	.	.	.	.	.	.	.
16G\LL	4dd\ 4ff 4gg 4bb	4f/	4GG\	.	.	4b/	4g\	.	.
16f\	.	.	.	.	.	.	.	.	.
16d\	.	.	.	.	.	.	.	.	.
16f\JJ	.	.	.	.	.	.	.	.	.
*	*	*v	*v	*	*	*	*	*	*
*	*	*	*	*	*v	*v	*	*
=45	=45	=45	=45	=45	=45	=45	=45
!!pagebreak:original
*tremolo	*tremolo	*	*	*	*	*	*
*	*	*^	*	*	*^	*	*
16C\LL 16E 16G	16gg\LL 16ccc	4e/	4C\	.	.	4.cc/	4cc\	.	.
16c\	16ee\	.	.	.	.	.	.	.	.
16C\ 16E 16G	16gg\ 16ccc	.	.	.	.	.	.	.	.
16c\	16ee\	.	.	.	.	.	.	.	.
16C\ 16E 16G	16gg\ 16ccc	4r	4ryy	.	.	.	4r	.	.
16c\	16ee\	.	.	.	.	.	.	.	.
16C\ 16E 16G	16gg\ 16ccc	.	.	.	.	8g/	.	.	.
16c\JJ	16ee\JJ	.	.	.	.	.	.	.	.
*	*	*v	*v	*	*	*	*	*	*
*	*	*	*	*	*v	*v	*	*
*	*	*^	*	*	*^	*	*
16C\LL 16E 16G	16gg\LL 16ccc	8r	4r	.	.	8cc/L	8r	.	.
16c\	16ee\	.	.	.	.	.	.	.	.
16C\ 16E 16G	16gg\ 16ccc	8g/	.	.	.	8ee/J	8e\	.	.
16c\	16ee\	.	.	.	.	.	.	.	.
16C\ 16E 16G	16gg\ 16ccc	8g/	4C\	.	.	8ee/	8e\	.	.
16c\	16ee\	.	.	.	.	.	.	.	.
16C\ 16E 16G	16gg\ 16ccc	8g/	.	.	.	8ee/	8g\	.	.
16c\JJ	16ee\JJ	.	.	.	.	.	.	.	.
*	*	*v	*v	*	*	*	*	*	*
*	*	*	*	*	*v	*v	*	*
=46	=46	=46	=46	=46	=46	=46	=46
*rep	*	*	*	*	*	*	*
*	*	*^	*	*	*^	*	*
16C\LL 16E 16G	16ee\LL 16gg	4.e/	4.C\	.	.	4.gg/	4cc\	.	.
16c\	16cc\	.	.	.	.	.	.	.	.
16C\ 16E 16G	16ee\ 16gg	.	.	.	.	.	.	.	.
16c\	16cc\	.	.	.	.	.	.	.	.
16C\ 16E 16G	16ee\ 16gg	.	.	.	.	.	4r	.	.
16c\	16cc\	.	.	.	.	.	.	.	.
!	!	!LO:N:vis=4.	!	!	!	!	!	!	!
16C\ 16E 16G	16ee\ 16gg	8r	8C\	.	.	8ee/	.	.	.
16c\JJ	16cc\JJ	.	.	.	.	.	.	.	.
*	*	*v	*v	*	*	*	*	*	*
*	*	*	*	*	*v	*v	*	*
*	*	*^	*	*	*^	*	*
16C\LL 16E 16G	16ee\LL 16gg	8r	8E\	.	.	4cc/	8r	.	.
16c\	16cc\	.	.	.	.	.	.	.	.
16C\ 16E 16G	16ee\ 16gg	8e/	8G\	.	.	.	8g\	.	.
16c\	16cc\	.	.	.	.	.	.	.	.
16C\ 16E 16G	16ee\ 16gg	8e/	8G\	.	.	4g/	8g\	.	.
16c\	16cc\	.	.	.	.	.	.	.	.
16C\ 16E 16G	16ee\ 16gg	8e/	8G\	.	.	.	8g\	.	.
16c\JJ	16cc\JJ	.	.	.	.	.	.	.	.
*	*	*v	*v	*	*	*	*	*	*
*	*	*	*	*	*v	*v	*	*
*Xrep	*	*	*	*	*	*	*
=47	=47	=47	=47	=47	=47	=47	=47
!!linebreak:original
*	*	*^	*	*	*^	*	*
16CC/LL 16EE 16GG	16g/LL 16cc	4e/	4c\	.	.	4.cc/	4e\	.	.
16C/	16e/	.	.	.	.	.	.	.	.
16CC/ 16EE 16GG	16g/ 16cc	.	.	.	.	.	.	.	.
16C/	16e/	.	.	.	.	.	.	.	.
16CC/ 16EE 16GG	16g/ 16cc	4r	4rc	.	.	.	4r	.	.
16C/	16e/	.	.	.	.	.	.	.	.
16CC/ 16EE 16GG	16g/ 16cc	.	.	.	.	8g/	.	.	.
16C/JJ	16e/JJ	.	.	.	.	.	.	.	.
*	*	*v	*v	*	*	*	*	*	*
*	*	*	*	*	*v	*v	*	*
*	*	*^	*	*	*^	*	*
16CC/LL 16EE 16GG	16g/LL 16cc	8r	4r	.	.	4cc/	8r	.	.
16C/	16e/	.	.	.	.	.	.	.	.
16CC/ 16EE 16GG	16g/ 16cc	8g/	.	.	.	.	8e\	.	.
16C/	16e/	.	.	.	.	.	.	.	.
16CC/ 16EE 16GG	16g/ 16cc	8g/	4C\	.	.	4ee/	8e\	.	.
16C/	16e/	.	.	.	.	.	.	.	.
16CC/ 16EE 16GG	16g/ 16cc	8g/	.	.	.	.	8g\	.	.
16C/JJ	16e/JJ	.	.	.	.	.	.	.	.
*	*	*v	*v	*	*	*	*	*	*
*	*	*	*	*	*v	*v	*	*
=48	=48	=48	=48	=48	=48	=48	=48
*	*	*^	*	*	*^	*	*
16CC/LL 16EE 16GG	16e/LL 16g	4.e/	4.C\	.	.	4.gg/	4.cc\	.	.
16C/	16c/	.	.	.	.	.	.	.	.
16CC/ 16EE 16GG	16e/ 16g	.	.	.	.	.	.	.	.
16C/	16c/	.	.	.	.	.	.	.	.
16CC/ 16EE 16GG	16e/ 16g	.	.	.	.	.	.	.	.
16C/	16c/	.	.	.	.	.	.	.	.
16CC/ 16EE 16GG	16e/ 16g	8r	8C\	.	.	8ee/	8r	.	.
16C/JJ	16c/JJ	.	.	.	.	.	.	.	.
*	*	*v	*v	*	*	*	*	*	*
*	*	*	*	*	*v	*v	*	*
*	*	*^	*	*	*^	*	*
16CC/LL 16EE 16GG	16e/LL 16g	8r	8E\	.	.	4cc/	8r	.	.
16C/	16c/	.	.	.	.	.	.	.	.
!	!	!	!	!	!	!LO:N:vis=8	!	!	!
16CC/ 16EE 16GG	16e/ 16g	8e/	8G\	.	.	.	8g\	.	.
16C/	16c/	.	.	.	.	.	.	.	.
16CC/ 16EE 16GG	16e/ 16g	8e/	8G\	.	.	4g/	8g\	.	.
16C/	16c/	.	.	.	.	.	.	.	.
16CC/ 16EE 16GG	16e/ 16g	8e/	8G\	.	.	.	8g\	.	.
16C/JJ	16c/JJ	.	.	.	.	.	.	.	.
*	*	*v	*v	*	*	*	*	*	*
*	*	*	*	*	*v	*v	*	*
*Xtremolo	*Xtremolo	*	*	*	*	*	*
=49	=49	=49	=49	=49	=49	=49	=49
!!linebreak:original
*	*	*^	*	*	*^	*	*
4CC/ 4C	4c/	4c/	4E\	.	.	4cc/	4e\	.	.
16C/LL	16c/LL	4C/	4C\	.	.	4c/	4c\	.	.
16GG/	16G/	.	.	.	.	.	.	.	.
16AA/	16A/	.	.	.	.	.	.	.	.
16BB/JJ	16B/JJ	.	.	.	.	.	.	.	.
4CC/ 4C	4c/	4E/	4E\	.	.	4e/	4e\	.	.
16C/LL	16c/LL	4G/	4G\	.	.	4g/	4g\	.	.
16GG/	16G/	.	.	.	.	.	.	.	.
16AA/	16A/	.	.	.	.	.	.	.	.
16BB/JJ	16B/JJ	.	.	.	.	.	.	.	.
=50	=50	=50	=50	=50	=50	=50	=50	=50	=50
8C\L	8c/L	2G/	2C\	.	.	2cc/	2e\	.	.
16D\L	16d/L	.	.	.	.	.	.	.	.
16E\JJ	16e/JJ	.	.	.	.	.	.	.	.
16F\LL	16f/LL	.	.	.	.	.	.	.	.
16G\	16g/	.	.	.	.	.	.	.	.
16A\	16a/	.	.	.	.	.	.	.	.
16B\JJ	16b/JJ	.	.	.	.	.	.	.	.
4C\ 4E 4G 4c	8cc\L	2rG	2rC	.	.	2rcc	2rc	.	.
.	16dd\L	.	.	.	.	.	.	.	.
.	16ee\JJ	.	.	.	.	.	.	.	.
4r	16ff\LL	.	.	.	.	.	.	.	.
.	16gg\	.	.	.	.	.	.	.	.
.	16aa\	.	.	.	.	.	.	.	.
.	16bb\JJ	.	.	.	.	.	.	.	.
=51	=51	=51	=51	=51	=51	=51	=51	=51	=51
4C\ 4E 4G 4c	4ccc\	1rG	1rC	.	.	1rcc	1rc	.	.
8.CC\L 8.GG 8.C	8.E</L 8.G< 8.c<	.	.	.	.	.	.	.	.
16CC\Jk 16GG 16C	16E</Jk 16G< 16c<	.	.	.	.	.	.	.	.
4CC\ 4GG 4C	4E</ 4G< 4c<	.	.	.	.	.	.	.	.
4CC\ 4GG 4C	4E</ 4G< 4c<	.	.	.	.	.	.	.	.
=52	=52	=52	=52	=52	=52	=52	=52	=52	=52
1CC 1C	1E<; 1G< 1c<	1r;G	1rC	.	.	1r;cc	1rc	.	.
*	*	*v	*v	*	*	*	*	*	*
*	*	*	*	*	*v	*v	*	*
==	==	==	==	==	==	==	==
*-	*-	*-	*-	*-	*-	*-	*-
!!!system-decoration: [(s1,s2)]{(s3,s4)}
!!!RDF**kern: > = above
!!!RDF**kern: < = below
!!!ENC: Katarzyna Serwa
!!!END: 2020-11-09
!!!ENC: Krzysztof Stępień
!!!END: 2021-11-16
